packages/icons/src/person-minus-fill.svg

<svg xmlns="http://www.w3.org/2000/svg" width="24" height="24" fill="none" viewBox="0 0 24 24">
  <path fill="#000" d="M14 8c0-2.21-1.79-4-4-4S6 5.79 6 8s1.79 4 4 4 4-1.79 4-4Zm3 2v2h6v-2h-6ZM2 18v2h16v-2c0-2.66-5.33-4-8-4s-8 1.34-8 4Z"/>
</svg>

<svg width="24" height="24" viewBox="0 0 24 24" fill="none" xmlns="http://www.w3.org/2000/svg">
<path d="M14 8C14 5.79 12.21 4 10 4C7.79 4 6 5.79 6 8C6 10.21 7.79 12 10 12C12.21 12 14 10.21 14 8ZM17 10V12H23V10H17ZM2 18V20H18V18C18 15.34 12.67 14 10 14C7.33 14 2 15.34 2 18Z" fill="black"/>
</svg>
